packages/ffe-icons/icons/filled/lg/bia.svg

<svg xmlns="http://www.w3.org/2000/svg" height="40" viewBox="0 -960 960 960" width="40"><path d="M270.256-589.999h156.13q-7.231-10.539-11.039-22.847-3.808-12.308-3.808-27.154 0-14.09 3.071-26.263 3.07-12.173 8.545-23.481h-140.59q-5.385 0-8.847 3.462-3.462 3.462-3.462 8.847v87.436Zm365.516 42.051q63.33 0 118.651-18.757 55.321-18.756 55.321-73.295t-55.325-73.295q-55.324-18.757-118.654-18.757t-118.65 18.757Q461.794-694.539 461.794-640t55.324 73.295q55.325 18.757 118.654 18.757ZM162.565-180.001q-25.609 0-44.086-18.478-18.478-18.477-18.478-44.086v-284.871q0-25.608 18.478-44.086 18.477-18.477 44.086-18.477h57.436v-87.436q0-25.609 18.478-44.086 18.477-18.478 44.086-18.478h187.05q32.077-21.923 76.087-32.115 44.01-10.192 90.067-10.192 84.076 0 154.153 34.115T859.999-640v397.435q0 25.609-18.478 44.086-18.477 18.478-44.086 18.478H625.127V-320q0-10.679-7.262-17.903-7.263-7.224-18-7.224-10.736 0-17.864 7.224T574.873-320v139.999H465.127V-320q0-10.852-7.262-17.99-7.263-7.137-18-7.137-10.736 0-17.864 7.224T414.873-320v139.999H305.127V-320q0-10.852-7.262-17.99-7.263-7.137-18-7.137-10.736 0-17.864 7.224T254.873-320v139.999h-92.308Z"/></svg>

<svg xmlns="http://www.w3.org/2000/svg" viewBox="0 -960 960 960" width="32" height="32"><path d="M270.26-590h156.13q-7.23-10.54-11.04-22.85-3.81-12.3-3.81-27.15 0-14.09 3.07-26.26 3.07-12.18 8.54-23.48H282.57q-5.39 0-8.85 3.46t-3.46 8.85V-590Zm365.51 42.05q63.33 0 118.65-18.76 55.32-18.75 55.32-73.29 0-54.54-55.32-73.29-55.32-18.76-118.65-18.76-63.33 0-118.66 18.76-55.32 18.75-55.32 73.29 0 54.54 55.33 73.29 55.32 18.76 118.65 18.76ZM162.57-180q-25.61 0-44.09-18.48Q100-216.96 100-242.57v-284.87q0-25.6 18.48-44.08Q136.96-590 162.57-590H220v-87.43q0-25.61 18.48-44.09Q256.96-740 282.57-740h187.04q32.08-21.92 76.09-32.11 44.01-10.2 90.07-10.2 84.08 0 154.15 34.12Q860-714.08 860-640v397.43q0 25.61-18.48 44.09Q823.04-180 797.43-180h-172.3v-140q0-10.68-7.27-17.9-7.26-7.23-17.99-7.23-10.74 0-17.87 7.23-7.13 7.22-7.13 17.9v140H465.13v-140q0-10.85-7.27-17.99-7.26-7.14-17.99-7.14-10.74 0-17.87 7.23-7.13 7.22-7.13 17.9v140H305.13v-140q0-10.85-7.27-17.99-7.26-7.14-17.99-7.14-10.74 0-17.87 7.23-7.13 7.22-7.13 17.9v140h-92.3Z"/></svg>
